svg/solid/bxs-server.svg

<svg xmlns="http://www.w3.org/2000/svg" width="24" height="24" viewBox="0 0 24 24"><path fill="none" d="M13 16H15V18H13zM17 16H19V18H17zM13 6H15V8H13zM17 6H19V8H17z"/><path d="M20 3H4C2.896 3 2 3.896 2 5v4c0 1.104.896 2 2 2h16c1.104 0 2-.896 2-2V5C22 3.896 21.104 3 20 3zM15 8h-2V6h2V8zM19 8h-2V6h2V8zM20 13H4c-1.104 0-2 .896-2 2v4c0 1.104.896 2 2 2h16c1.104 0 2-.896 2-2v-4C22 13.896 21.104 13 20 13zM15 18h-2v-2h2V18zM19 18h-2v-2h2V18z"/></svg>

<svg xmlns="http://www.w3.org/2000/svg" width="24" height="24"><path fill="none" d="M13 16h2v2h-2zm4 0h2v2h-2zM13 6h2v2h-2zm4 0h2v2h-2z"/><path d="M20 3H4a2 2 0 0 0-2 2v4a2 2 0 0 0 2 2h16a2 2 0 0 0 2-2V5a2 2 0 0 0-2-2zm-5 5h-2V6h2v2zm4 0h-2V6h2v2zm1 5H4a2 2 0 0 0-2 2v4a2 2 0 0 0 2 2h16a2 2 0 0 0 2-2v-4a2 2 0 0 0-2-2zm-5 5h-2v-2h2v2zm4 0h-2v-2h2v2z"/></svg>
